!!!COM: Mozart, Wolfgang Amadeus
!!!OTL: Musikalische Würfelspiele, Kontre-Tänze
!!!SCA: K<sup>6</sup> Anh. C30.01 (K<sup>3</sup> Anh. 294d)
**kern	**kern
*staff2	*staff2
*clefF4	*clefG2
*M2/4	*M2/4
*MM110	*MM110
*>[A,A1,A,A2,B]	*>[A,A1,A,A2,B]
*>norep[A,A2,B]	*>norep[A,A2,B]
*>A	*>A
=33	=33
4C	16cc
.	16c
.	16e
.	16g
4C	16cc
.	16ee
.	16gg
.	16ccc
=150	=150
16C	8gg
16E	.
16G	8ee
16E	.
4C	16cc
.	16ee
.	16gg
.	16ee
=160	=160
16GG	8dd
16BB	.
16D	8b
16BB	.
4GG	16g
.	16b
.	16dd
.	16b
=69	=69
4C	8cc
.	16g
.	16e
4r	8c
.	8c
=111	=111
4D	8d
.	16f#
.	16a
4D	8dd
.	8ff#
=52	=52
16BB	8gg
16GG	.
16BB	8bb
16D	.
16G	8gg
16D	.
16BB	8dd
16GG	.
=168	=168
4C	8ee
.	4cc
4D	.
.	16a
.	16f#
=89	=89
*>A1	*>A1
4GG	4g 4b 4gg
16G	4r
16F	.
16E	.
16D	.
=89:|!	=89:|!
*>A2	*>A2
4GG	4g 4b 4gg
16GG	4r
16AA	.
16BB	.
16C#	.
=144||	=144||
*>B	*>B
4D	8d
.	16f#
.	16a
4D	8dd
.	8ff#
=34	=34
8G	16gg
.	16bb
8r	16gg
.	16dd
8GG	16b
.	16gg
8r	16dd
.	16b
=29	=29
4C	16ee
.	16cc
.	16g
.	16cc
4C	16ee
.	16cc
.	16gg
.	16ee
=51	=51
4GG	16b
.	16gg
.	16dd
.	16b
16G	4g
16F	.
16E	.
16D	.
=94	=94
16C	8cc
16E	.
16G	8ee
16E	.
16C	8gg
16E	.
16G	8ee
16E	.
=32	=32
4C	8ccc
.	8gg
4r	8ee
.	8cc
=159	=159
4G	8dd
.	4ff
4GG	.
.	16dd
.	16b
=20	=20
4C	4cc
4CC	4c
==	==
*-	*-
